X: 22217
T: La Complainte Du Folkloriste
R: waltz
M: 3/4
K: Edorian
|:B2|e3 f g2|f3 g a2|g3 d BA|G4 F2|E3 F G2|A3 G A2|B6-|1 B4:|2 B6||
|:g6|e4 g2|f6|d4 f2|e3 f g2|f2 e2 d2|e6|B4 c2|
d6|A4 d2|e3 f g2|f3 g a2|g3 f e2|f3 e d2|e6-|1 e4 e2:|2 e4||

